48x48/apps/civilization-beyond-earth.svg

<svg width="48" height="48" version="1.1" xmlns="http://www.w3.org/2000/svg">
 <g transform="matrix(2,0,0,1.9999864,2,2.0002914)">
  <path d="m11.053999 1.0005263c-0.418896-0.01009-0.832502 0.09485-1.1955 0.303345l-6.716998 3.862936c-0.7064023 0.406206-1.1415525 1.156984-1.141501 1.969467v7.7263707c-4e-7 0.812392 0.4350993 1.563072 1.141401 1.969267l6.717198 3.86344c0.706301 0.406197 1.5765 0.406197 2.282802 0l6.716848-3.863266c0.706402-0.406205 1.141553-1.156984 1.141501-1.969468l-5e-5 -7.7265437c5.1e-5 -0.812483-0.435099-1.563261-1.141501-1.969467l-6.716998-3.862936c-0.331274-0.190247-0.705217-0.294554-1.087502-0.303345z" style="fill:#f4f4f7"/>
  <path d="m2 14.863293v0.499992a2.282762 2.2739121 0 0 0 1.141581 1.968718l6.716888 3.863236a2.282762 2.2739121 0 0 0 2.283162 0l6.716888-3.863436a2.282762 2.2739121 0 0 0 1.141481-1.968968v-0.499992a2.282762 2.2739121 0 0 1-1.141581 1.968718l-6.716888 3.863236a2.282762 2.2739121 0 0 1-2.283162 0l-6.716888-3.863436a2.282762 2.2739121 0 0 1-1.141481-1.968967z" style="opacity:.2"/>
  <path d="m11.053349 1.001524a2.282762 2.2739121 0 0 0-1.19498 0.302695l-6.716888 3.863236a2.282762 2.2739121 0 0 0-1.141481 1.969467v0.499992a2.282762 2.2739121 0 0 1 1.141581-1.969468l6.716888-3.863235a2.282762 2.2739121 0 0 1 1.19528-0.30273 2.282762 2.2739121 0 0 1 1.087882 0.30273l6.716888 3.863235a2.282762 2.2739121 0 0 1 1.141481 1.969468v-0.499992a2.282762 2.2739121 0 0 0-1.141481-1.969467l-6.716888-3.863236a2.282762 2.2739121 0 0 0-1.087982-0.302695z" style="fill:#f4f4f7;opacity:.2"/>
  <path d="m10 4.072532-4.9921875 2.8515625 3.3339844 1.9042969 1.6582031-0.828125zm2 0v3.9277344l1.658203 0.828125 3.333985-1.9042969zm-1 4.4277344a3 3 0 0 0-3 2.9999996 3 3 0 0 0 3 3 3 3 0 0 0 3-3 3 3 0 0 0-3-2.9999996zm-7 0.1523438v5.6953118l3-1.714844v-2.265624zm14 0-3 1.7148438v2.265624l3 1.714844zm-9.6582031 5.5195308-3.3339844 1.904297 4.9921875 2.851562v-3.927734zm5.3164061 0-1.658203 0.828125v3.927734l4.992188-2.851562z" style="opacity:.1"/>
  <path d="m10 3.5722656-4.9921875 2.8515625 3.3339844 1.9042969 1.6582031-0.828125zm2 0v3.9277344l1.658203 0.828125 3.333985-1.9042969zm-1 4.4277344a3 3 0 0 0-3 3 3 3 0 0 0 3 3 3 3 0 0 0 3-3 3 3 0 0 0-3-3zm-7 0.1523438v5.6953122l3-1.714844v-2.2656245zm14 0-3 1.7148437v2.2656245l3 1.714844zm-9.6582031 5.5195312-3.3339844 1.904297 4.9921875 2.851562v-3.927734zm5.3164061 0-1.658203 0.828125v3.927734l4.992188-2.851562z" style="fill:#283046"/>
  <path d="M 5.703125,9.125 A 7,7 0 0 0 4,9.6835938 V 13.847656 L 7,12.132812 V 9.8671875 Z M 8.6074219,9.195312 A 3,3 0 0 0 8,11 3,3 0 0 0 11,14 3,3 0 0 0 13.287109,12.935547 7,7 0 0 0 8.6074219,9.195312 Z M 8.3417969,13.671875 5.0078125,15.576172 10,18.427734 V 14.5 Z M 13.601562,13.699219 12,14.5 v 3.927734 l 1.865234,-1.066406 A 7,7 0 0 0 14,16 7,7 0 0 0 13.601562,13.699219 Z" style="fill:#4a85c3"/>
 </g>
</svg>

<svg width="48" height="48" xmlns="http://www.w3.org/2000/svg"><path d="M11.054 1a2.29 2.29 0 0 0-1.196.304L3.142 5.167A2.272 2.272 0 0 0 2 7.137v7.726c0 .812.435 1.563 1.141 1.969l6.718 3.863a2.29 2.29 0 0 0 2.282 0l6.717-3.863A2.272 2.272 0 0 0 20 14.862V7.137c0-.812-.435-1.563-1.142-1.97l-6.717-3.862A2.29 2.29 0 0 0 11.054 1z" style="fill:#f4f4f7" transform="matrix(2 0 0 1.99999 2 2)"/><path d="M2 14.863v.5a2.283 2.274 0 0 0 1.142 1.969l6.716 3.863a2.283 2.274 0 0 0 2.284 0l6.717-3.863A2.283 2.274 0 0 0 20 15.362v-.5a2.283 2.274 0 0 1-1.142 1.97l-6.716 3.863a2.283 2.274 0 0 1-2.284 0L3.141 16.83A2.283 2.274 0 0 1 2 14.862z" style="opacity:.2" transform="matrix(2 0 0 1.99999 2 2)"/><path d="M11.053 1.002a2.283 2.274 0 0 0-1.195.302L3.141 5.167A2.283 2.274 0 0 0 2 7.137v.5a2.283 2.274 0 0 1 1.142-1.97l6.716-3.863a2.283 2.274 0 0 1 1.196-.303 2.283 2.274 0 0 1 1.088.303l6.717 3.863A2.283 2.274 0 0 1 20 7.637v-.5a2.283 2.274 0 0 0-1.141-1.97l-6.717-3.863a2.283 2.274 0 0 0-1.088-.302z" style="fill:#f4f4f7;opacity:.2" transform="matrix(2 0 0 1.99999 2 2)"/><path d="M10 4.073 5.008 6.924l3.334 1.904L10 8zm2 0V8l1.658.828 3.334-1.904zM11 8.5a3 3 0 0 0-3 3 3 3 0 0 0 3 3 3 3 0 0 0 3-3 3 3 0 0 0-3-3zm-7 .153v5.695l3-1.715v-2.266zm14 0-3 1.714v2.266l3 1.715zm-9.658 5.52-3.334 1.903L10 18.928V15zm5.316 0L12 15v3.928l4.992-2.852z" style="opacity:.1" transform="matrix(2 0 0 1.99999 2 2)"/><path d="M10 3.572 5.008 6.424l3.334 1.904L10 7.5zm2 0V7.5l1.658.828 3.334-1.904zM11 8a3 3 0 0 0-3 3 3 3 0 0 0 3 3 3 3 0 0 0 3-3 3 3 0 0 0-3-3zm-7 .152v5.696l3-1.715V9.867zm14 0-3 1.715v2.266l3 1.715zm-9.658 5.52-3.334 1.904L10 18.428V14.5zm5.316 0L12 14.5v3.928l4.992-2.852z" style="fill:#283046" transform="matrix(2 0 0 1.99999 2 2)"/><path d="M5.703 9.125A7 7 0 0 0 4 9.684v4.164l3-1.715V9.867zm2.904.07A3 3 0 0 0 8 11a3 3 0 0 0 3 3 3 3 0 0 0 2.287-1.064 7 7 0 0 0-4.68-3.74zm-.265 4.477-3.334 1.904L10 18.428V14.5zm5.26.027L12 14.5v3.928l1.865-1.067A7 7 0 0 0 14 16a7 7 0 0 0-.398-2.3z" style="fill:#4a85c3" transform="matrix(2 0 0 1.99999 2 2)"/></svg>
